!!!!SEGMENT: pl-wtm--r-250-m_moniuszko-stanislaw--skowronek.krn
!!!cenid: 18xx:1656
!!!COM: Moniuszko, Stanisław
!!!COM-rismid: pe30008351
!!!CDT: 1819/05/05-1872/06/04
!!!CNT: Polish
!!!OTL: Skowronek
!!!PDT:
!!!AGN: Secular
!!!SMS-siglum: PL-Wtm
!!!SMS-shelfmark: R 250/M
!!!SMS-shelfwork: W
!!!SMS-variant:
!!!SMS-altvar:
!!!NIFC-rismid: 1001063786
!!!URL-scan: http://repozytorium.nifc.pl/skany/pl-wtm-nut--r229m
!!!ONB-nifc:
!!!key:
**kern	**kern	**dynam	**kern	**text	**text	**text	**dynam
*part2	*part2	*part2	*part1	*part1	*part1	*part1	*part1
*staff3	*staff2	*	*staff1	*staff1	*staff1	*staff1	*
*Iforte	*Iforte	*	*Ivox	*	*	*	*
*I"Fortepian	*I"Fortepian	*	*I"[Voice]	*	*	*	*
*I'pf	*pf	*	*I'[V]	*	*	*	*
*clefF4	*clefG2	*	*clefG2	*	*	*	*
*k[b-e-a-]	*k[b-e-a-]	*	*k[b-e-a-]	*	*	*	*
*E-:	*E-:	*	*E-:	*	*	*	*
*M3/4	*M3/4	*	*M3/4	*	*	*	*
*>[A,B,B,B,C]	*>[A,B,B,B,C]	*	*>[A,B,B,B,C]	*	*	*	*
=1	=1	=1	=1	=1	=1	=1	=1
*>A	*>A	*	*>A	*	*	*	*
!	!	!	!LO:TX:a:i:t=Allegretto.	!	!	!	!
!	!	!	!LO:TX:a:i:t=32. Skowronek. (&colon;IIgi&colon;) Piosnka rolnika.	!	!	!	!
!	!	!	!LO:TX:a:i:t=K. B.	!	!	!	!
!	!	!	!LO:TX:a:i:t=Był	!	!	!	!
!	!	!	!LO:TX:a:i:t=Drukowany \np.t. Skowronek i słowik	!	!	!	!
4E- 4BB- 4EE-\	4g 4e- 4B-< 4G</	.	2.r	.	.	.	.
4E- 4BB- 4EE-\	4g 4e- 4B-< 4G</	.	.	.	.	.	.
4E- 4BB- 4EE-\	4g 4e- 4B-< 4G</	.	.	.	.	.	.
=2	=2	=2	=2	=2	=2	=2	=2
4E- 4BB- 4EE-\	8gL 8e-/	.	2.r	.	.	.	.
.	[>8B-<J [>8G</	.	.	.	.	.	.
4E- 4BB- 4EE-\	4g 4e- 4B-<] 4G</]	.	.	.	.	.	.
4E- 4BB- 4EE-\	4g 4e- 4B-< 4G</	.	.	.	.	.	.
=3!|:	=3!|:	=3!|:	=3!|:	=3!|:	=3!|:	=3!|:	=3!|:
*>B	*>B	*	*>B	*	*	*	*
4E- 4EE-/	4g 4e- 4B-</	.	8g/	Cud-	Gdy	Ko-	.
.	.	.	8b-/	-nie	się	-mu	.
4E- 4EE-/	4a- 4f 4c/	.	4a-/	cud-	stru-	ludz-	.
4E- 4EE-/	4a- 4f 4c/	.	4cc/	-nie	-dzą	-kość	.
=4	=4	=4	=4	=4	=4	=4	=4
4E- 4EE-/	4f 4d 4B-/	.	8f/	sło-	bra-	nie	.
.	.	.	8a-/	-wik	-cia	jest	.
4E- 4EE-/	4a- 4f 4d 4B-/	.	4a-/	spie-	mo-	dro-	.
4E- 4EE-/	4g 4e- 4B-/	.	4g/	-wa	-i,	-ga,	.
=5	=5	=5	=5	=5	=5	=5	=5
2.BB- 2.BBB-/	4r	.	8f/	w noc	gdy	dla	.
.	.	.	16g/LL	czerw-	zwąt-	próż-	.
.	.	.	16f/JJ	.	.	.	.
.	4f 4d 4B- 4A-/	.	4d/	-co-	-pie-	-nia-	.
.	4f 4d 4B- 4A-/	.	4B-/	-wą	-nie	-ków	.
!!LO:LB:g=original
=6	=6	=6	=6	=6	=6	=6	=6
4E- 4EE-/	4e- 4B- 4G/	.	8e-/	z brzas-	pierś	głos	.
.	.	.	8g/	-kiem	roz-	niech	.
(<4D/	(<4f 4B-/	.	4.b-/	dzion-	-ry-	tra-	.
4BB-/)	4a- 4f 4d/)	.	.	.	.	.	.
.	.	.	8a-/	-ka,	-wa,	-ci,	.
=7	=7	=7	=7	=7	=7	=7	=7
4E- 4EE-/	(<8gL 8e- 8B-/	.	8g/	lu-	któż	to-	.
.	8b-/J)	.	8b-/	-bą	na-	-bie	.
4E- 4EE-/	4an 4f 4c/	.	4an/	bło-	-dzie-	ka-	.
4E- 4EE-/	4a 4f 4c/	.	4cc\	-gość	-ją	-że	.
=8	=8	=8	=8	=8	=8	=8	=8
4E- 4EE-/	8a-L 8f 8d 8c-X/	.	8.f/	w ser-	ich	wo-	.
.	8B-/J	.	.	.	.	.	.
.	.	.	16a-X/	-ce	na-	-la	.
4BB- 4EE-/	4a- 4f 4d 4B-/	.	4a-/	wle-	-po-	Bo-	.
!LO:TX:b:t=8	!	!	!	!	!	!	!
4EE-/	4g 4e- 4B-/	.	8g/	-wa	-i?	-ga	.
.	.	.	8r	.	.	.	.
=9	=9	=9	=9	=9	=9	=9	=9
4FF 4FFF\	4f 4e- 4An</	.	8f/	My	Kto	być	.
.	.	.	8ee-\	jed-	pios-	sko-	.
4GG 4GGG\	4f 4e- 4B-</	.	4ee-^>\	-nak	-necz-	-wron-	.
!	!LO:TX:b:i:t=cres. cen. do.:problem:dynamics with dot extensions	!LO:HP:b:i:t=cres.cen.do.:ext=ct	!	!	!	!	!
4AAn 4AAAn\	4f 4e- 4c/	<	4ee-^>\	wo-	-kę	-kiem	.
=10	=10	=10	=10	=10	=10	=10	=10
4BB- 4BBB-\	4d 4B- 4D</	.	8dd\	-lim	im	dla	.
.	.	.	8cc\	sko-	za-	twych	.
!	!	!	!	!	!	!	!LO:HP:a
4C 4CC\	4e- 4B- 4E-</	.	4.cc\	-wron-	-śpie-	bra-	>
4D 4DD\	4f 4B- 4F</	.	.	.	.	.	.
.	.	.	8b-\	-ka.	-wa	-ci	]]
!!LO:LB:g=original
=11	=11	=11	=11-	=11-	=11-	=11-	=11-
4E- 4EE-/	4g 4e- 4G/	.	8b-/	cud-	gdy	to-	.
.	.	.	8b-/	-nie,	się	-bie	.
4F 4FF/	4an 4e- 4Any/	.	4.an/	cud-	stru-	ka-	.
4G 4GG/	4b- 4e- 4B-/	.	.	.	.	.	.
.	.	.	8g/	-nie	-dzą	-że	.
=12	=12	=12	=12	=12	=12	=12	=12
4An 4AAn/	4cc 4c/	.	8g/	sło-	bra-	wo-	.
.	.	.	8g/	-wik	-cia	-la	.
4B- 4BB-\	4dd 4d/	[	4.f/	spie-	mo-	Bo-	.
4c 4C\	4ee- 4e-/	.	.	.	.	.	.
.	.	.	8e-/	-wa,	-i,	-ga,	.
=13	=13	=13	=13	=13	=13	=13	=13
*^	*^	*	*	*	*	*	*
*	*	*	*^	*	*	*	*	*	*
*	*	*	*	*^	*	*	*	*	*	*
*2\right	*2\right	*2\right	*2\right	*	*	*	*	*	*	*	*
!	!	!	!	!	!	!LO:HP:b	!	!	!	!	!
!	!	!	!	!	!	!LO:DY:b:rj:t=ff.	!	!	!	!	!
2d\ 2D\	(>4A-\	(<4a-\	(>4cc/	2ff/	2f	ff>	8d/	lu-	Kto	to-	.
.	.	.	.	.	.	.	8dd\	-bą	na-	-bie	.
.	8G\)	8bn) 8g\)	4ryy	.	.	]	4.dd;>\	bło-	-dzie-	ka-	.
.	8rD	8rb	.	.	.	.	.	.	.	.	.
(>4BBn (<4BBBny/	4ryy	4f 4d [4G/	4ryy	4ryy	4ryy	fp	.	.	.	.	.
.	.	.	.	.	.	.	8f/	-gość	-ją	-że	.
*v	*v	*	*	*	*	*	*	*	*	*	*
*	*v	*v	*v	*v	*	*	*	*	*	*
=14	=14	=14	=14	=14	=14	=14	=14
4C 4CC/))	4e- 4c 4G/]	]	8e-/	w ser-	ich	wo-	.
.	.	.	8f/	-ce	na-	-la	.
4r	4e- 4c/	.	4.an/	wle-	-po-	Bo-	.
4r	4g 4e- 4c/	.	.	.	.	.	.
.	.	.	8g/	-wa,	-i,	-ga,	.
=15	=15	=15	=15	=15	=15	=15	=15
2FF\	4r	.	8f/	my	Kto	być	.
.	.	.	8b-/	jed-	pio-	sko-	.
.	4f 4d 4F</	.	4.f/	-nak	-snecz-	-wron-	.
4FF\	4e- 4c 4An< 4F</	.	.	.	.	.	.
.	.	.	8e-/	wo-	-ką	-kiem	.
!!LO:PB:g=original
=16	=16	=16	=16	=16	=16	=16	=16
8BB-/	8d 8B-/	.	8d/	-lim	im	dla	.
8r	8r	.	8c/	skow-	za-	twych	.
2D 2BB-\	2B-< 2F<;>/	.	4.B-;>/	-ron-	-śpie-	bra-	.
.	.	.	8B-/	-ka.	-wa?	-ci.	.
=17	=17	=17	=17	=17	=17	=17	=17
*^	*	*	*	*	*	*	*
2.BB-/	2DD\	4r	.	8B-/	My	Któż	Dla	.
.	.	.	.	8a-/	rol-	po-	pół-	.
.	.	4a- 4f 4B-/	.	4a-/	-ni-	-spie-	-boż-	.
.	4BBB-\	4a- 4f 4d 4B-/	.	4a-/	-cy	-szy	-ków	.
=18	=18	=18	=18	=18	=18	=18	=18	=18
.	.	.	.	8qa-/	.	.	.	.
(<2BB-/	2EE-\	4r	.	8g-X/	o	ul-	wy-	.
.	.	.	.	8f/	Dzie-	-żyć	-piesz-	.
.	.	4g-X 4e- 4B-/	.	4.g-/	-wi-	prze-	-czo-	.
4E-/)	4ryy	4g- 4e- 4B-/	.	.	.	.	.	.
.	.	.	.	8e-/	-co!	-cie	-nych	.
=19	=19	=19	=19	=19	=19	=19	=19	=19
*	*	*^	*	*	*	*	*	*
2.D-X/	2FF\	4r	4ryy	.	8d-X/	nas	u-	zo-	.
.	.	.	.	.	8cc-X\	po-	-po-	-staw	.
*	*	*	*cue	*	*	*	*	*	*
.	.	4a- 4c-X/	4f/	.	4cc-\	-pchnię-	-je-	mięk-	.
*	*	*	*Xcue	*	*	*	*	*	*
.	4DD-X\	4a- 4f 4c-/	4ryy	.	4cc-\	-to	-nia	-ką	.
*	*	*v	*v	*	*	*	*	*	*
=20	=20	=20	=20	=20	=20	=20	=20	=20
.	.	.	.	(<8qcc-X/	.	.	.	.
(<2D-X/	2.GG-X\	4r	.	8b-\)	dro-	zło-	pieśń	.
.	.	.	.	8an\	-gą	-tą	sło-	.
.	.	4b- 4g-X 4B-/	.	4.b-\	Krwa-	chwil-	-wi-	.
4G-X/)	.	4b- 4g- 4d-X 4B-/	.	.	.	.	.	.
.	.	.	.	8b-\	-wą,	-ką?..	-ka,	.
*v	*v	*	*	*	*	*	*	*
!!LO:LB:g=original
=21	=21	=21	=21	=21	=21	=21	=21
!	!	!	!	!	!	!	!LO:DY:a:t=f.
8F\	8b- 8dn\	.	8b-\	z bó-	ża-	nas	f
8r	8r	.	8b-\	-lem	-den	rol-	.
2F 2BB-;>\	2dd 2b- 2a- 2d;>/	.	4.dd;>\	ser-	sło-	-ni-	.
.	.	.	8b-\	-ca	-wik,	-ków	.
=22	=22	=22	=22	=22	=22	=22	=22
!	!	!	!	!	!	!	!LO:DY:a:t=f.
8E-\	8b- 8g-X/	.	8b-\	i	nikt	wciąż	f
8r	8r	.	8b-\	tęs-	na	zwo-	.
2G-X 2E- 2GG-X;>\	2ee- 2b- 2e-;>\	.	4.ee-;>\	-chni-	swie-	-dzo-	.
.	.	.	8b-\	-cą	-cie!	-nych,	.
=23	=23	=23	=23	=23	=23	=23	=23
!	!	!	!	!	!	!	!LO:DY:a:t=p.
(4A- 4AA-/	(>4cc-X 4e- (<4c-y/	.	8cc-X\	o-	sko-	głos	p
.	.	.	8cc-\	-rać	-wro-	twój	.
4G-X 4GG-X/)	4b- 4e- 4B-/))	.	4b-\	mu-	-ne-	wia-	.
4F 4FF'/	4b- 4a- 4d'/	.	4a-\	-sim	-czek	-rą	.
=24	=24	=24	=24	=24	=24	=24	=24
2E- 2EE-/	4r	.	8g-X/	cięż-	je-	niech	.
.	.	.	8f/	-ko,	-den	prze-	.
.	4g-X 4e- 4B-/	.	4g-/	krwa-	tyl-	-ni-	.
4G-X\	4e- 4B-/	.	8e-/	-wo.	-ko.	-ka.	.
.	.	.	8r	.	.	.	.
=25	=25	=25	=25	=25	=25	=25	=25
*	*^	*	*	*	*	*	*
!	!	!	!	!	!	!	!	!LO:DY:a:t=pp.
2F\	(>8d-X/L	2d-\	.	8d-X/	In-	Gdy	Sko-	pp
.	8cc-XJ 8a-/)	.	.	8cc-X\	-nym	się	-wro-	.
.	8cc- 8a-/	.	.	4cc-\	ros-	z piosn-	-necz-	.
.	8re	.	.	.	.	.	.	.
4D-X\	4cc- 4a- 4f 4d-/	4ryy	.	4cc-\	-kosz,	-ką	-ku!	.
*	*v	*v	*	*	*	*	*	*
=26	=26	=26	=26	=26	=26	=26	=26
2G-X\	4r	.	8b-\	dla	w gó-	ciesz	.
.	.	.	8cc-X\	nas	-rę	na-	.
.	4b- 4g-X 4d-X/	.	4.dd-X\	tru-	wzbi-	-dzie-	.
4D-X\	4gg-X 4dd-X 4b- 4g-\	.	.	.	.	.	.
.	.	.	8g-X/	-dy,	-je,	-ją	.
!!LO:LB:g=original
=27	=27	=27	=27	=27	=27	=27	=27
*	*^	*	*	*	*	*	*
!	!	!	!	!LO:TX:a:t=P:problem:w źródle od tego miejsca trzecia zwrotka tekstu słownego zapisana na pięciolinią partii [Voice]	!	!	!	!
2AA-/	4r	4ryy	.	8f/	1. bez	2. pa-	3. spiew	.
.	.	.	.	8e-/	spo-	-trząc	twój	.
.	4ff 4dd-X 4cc-X 4f\	4ryy	.	4d-X/	-czy-	za	ca-	.
4DD-X/	4ccc 4ff\	4r	.	4cc-X\	-nku	nim	-ły	.
*	*v	*v	*	*	*	*	*	*
=28	=28	=28	=28	=28	=28	=28	=28
2.GG-X/	4r	.	8b-\	i	nie-	nam	.
.	.	.	8an\	o-	-bo	po-	.
.	4bb- 4gg-X 4dd-X 4b-\	.	4.b-\	-chło-	wi-	-świę-	.
.	4b- 4g 4d-y 4B-/	.	.	.	.	.	.
.	.	.	8b-\	-dy;	-dzim,	-caj,	.
=29	=29	=29	=29	=29	=29	=29	=29
!	!	!	!LO:TX:t=P:problem:nuta poprawiona przez głównego skryptora; przed poprawieniem była nuta 8.b-	!	!	!	!
8c 8C\	8an 8f 8e- 8c 8An/	.	8.an\	ze-	i	oh!	.
8r	8r	.	.	.	.	.	.
!	!	!	!LO:TX:t=P:problem:nuta poprawiona przez głównego skryptora; przed poprawieniem była nuta 16b-	!	!	!	!
.	.	.	16a\	-schłe	znów	bo	.
2C 2CC/	2a 2f 2e- 2A/	.	4.ee-;>\	ski-	w ser-	nie-	.
.	.	.	8a\	-by,	-cu	-raz	.
=30	=30	=30	=30	=30	=30	=30	=30
!	!	!	!LO:TX:t=P:problem:nuta poprawiona przez głównego skryptora; przed poprawieniem była nuta 8.b-	!	!	!	!
8C-X 8CC-X/	8a-X 8f 8e- 8A-/	.	8.a-X\	twar-	moc	si-	.
8r	8r	.	.	.	.	.	.
!	!	!	!LO:TX:t=P:problem:nuta poprawiona przez głównego skryptora; przed poprawieniem była nuta 16b-	!	!	!	!
.	.	.	16a-\	-de	od-	-ły	.
(<4C-/	4a-;> 4f 4e- 4A-/	.	4.ee-;>\	gru-	-ży-	mdle-	.
4BB-/	4g-X 4e- 4G-y/	.	.	.	.	.	.
.	.	.	8e-/	-dy,	-je	-ją,	.
=31	=31	=31	=31	=31	=31	=31	=31
!	!	!	!LO:TX:t=P:problem:nuta poprawiona przez głównego skryptora; przed poprawieniem była nuta 8cc-	!	!	!	!
4AA-/	4cc-X 4e- 4c-X/	.	8f\	i	i	więc	.
!	!	!	!LO:TX:t=P:problem:nuta poprawiona przez głównego skryptora; przed poprawieniem była nuta 8cc-	!	!	!	!
.	.	.	8a-\	za-	znów	pok-	.
!	!	!	!LO:TX:t=P:problem:nuta poprawiona przez głównego skryptora; przed poprawieniem była nuta 4b-	!	!	!	!
4GG-X/	4b- 4e- 4B-/	.	4g-X\	-wo-	śmia-	-rze-	.
!	!	!	!LO:TX:t=P:problem:nuta poprawiona przez głównego skryptora; przed poprawieniem była nuta 4a	!	!	!	!
4FF/	4a- 4d 4B-/	.	4f\	-dy	-ło	-piaj	.
=32	=32	=32	=32	=32	=32	=32	=32
!	!	!	!LO:TX:t=P:problem:nuta poprawiona przez głównego skryptora; przed poprawieniem była nuta 8gn	!	!	!	!
2EE-/)	4r	.	8e-\	wciąż	z cier-	i	.
!	!	!	!LO:TX:t=P:problem:nuta poprawiona przez głównego skryptora; przed poprawieniem była nuta 8a	!	!	!	!
.	.	.	8f\	za-	-pień	za-	.
!	!	!	!LO:TX:t=P:problem:nuta poprawiona przez głównego skryptora; przed poprawieniem była nuta 4cc	!	!	!	!
.	4g-X 4e- 4B-/	.	4g-X\	-wo-	szy-	-chę-	.
!	!	!	!LO:TX:t=P:problem:nuta poprawiona przez głównego skryptora; przed poprawieniem była nuta 4b-	!	!	!	!
4E- 4EE-/	4a- 4e- 4c-X/	.	4a-\	-dy,	-dzim	-caj,	.
!!LO:LB:g=original
=33	=33	=33	=33	=33	=33	=33	=33
8D 8DD/	8f 8B-/	.	8b-\	ze-	i	oh!	.
8r	8r	.	8b-\	-schłe	znów	bo	.
2B- 2F 2D\	2ff 2b- 2a- 2f;>\	.	4.ff;>\	ski-	w ser-	nie-	.
.	.	.	8a-/	-by,	-cu	-raz	.
=34	=34	=34	=34	=34	=34	=34	=34
!	!	!LO:HP:b=2	!	!	!	!	!
(<4E- 4EE-/	(<4g 4e-/	<	8g/	twar-	moc	si-	.
.	.	.	8a-/	-de	od-	-ły	.
4F 4FF/	4a- 4d/	.	4b-/	gru-	-ży-	mdle-	.
4G 4GG/	4b- 4e- 4d-X/	.	4ee-\	-dy,	-je,	-ją,	.
=35	=35	=35	=35	=35	=35	=35	=35
4A- 4AA-/	4cc 4e- 4c/	.	8ee-\	i	smia-	krzep	.
.	.	.	8ee-\	cią-	-ło	nas	.
4B- 4BB-/	4dd 4d/	.	4dd\	-głe	z cier-	i	.
4c 4C/	4ee- 4e-/)	[[	4cc\	za-	-pień	za-	.
=36	=36	=36	=36	=36	=36	=36	=36
*	*	*	*2\right	*	*	*	*
!	!	!LO:DY:b=2:t=f.	!	!	!	!	!
4B- 4BB-\)	8.r	f	2.b-\	-wo-	szy-	-chę-	.
!	!	!LO:DY:b:t=p.	!	!	!	!	!
.	16b- 16g'/	p	.	.	.	.	.
4r	(<4a- 4f/	.	.	.	.	.	.
4r	4f 4B-/)	.	.	.	.	.	.
=37	=37	=37	=37	=37	=37	=37	=37
!	!	!LO:DY:b:t=pp.	!	!	!	!	!
4e- 4G 4E-\	(>16gg\LL	pp	4e-/	-dy.	-dzim	-caj!	.
.	16bb-\JJ)	.	.	.	.	.	.
.	8r	.	.	.	.	.	.
(<4c 4F 4E-\	(>4aan\	.	4r	.	.	.	.
4c 4F 4E-\	4ccc\)	.	4r	.	.	.	.
=38	=38	=38	=38	=38	=38	=38	=38
4d 4B- 4F 4E-\)	8ff\L	.	2.r	.	.	.	.
.	8aa-\J	.	.	.	.	.	.
!	!	!	!LO:HP:b	!	!	!	!
4d 4B- 4F 4E-\	(>4aa-\	>	.	.	.	.	.
4e- 4B- 4E-\	4gg\)	]	.	.	.	.	.
=39	=39	=39	=39	=39	=39	=39	=39
8BB- 8BBB-/	8r	.	2.r	.	.	.	.
8r	(>24ff\LL	.	.	.	.	.	.
.	24gg\	.	.	.	.	.	.
.	24ff\JJ	.	.	.	.	.	.
[>2a-: [>2d: [>2B-: [<2F:\	4dd\)	.	.	.	.	.	.
.	(>4b-\	.	.	.	.	.	.
=40	=40	=40	=40	=40	=40	=40	=40
4a-] 4d] 4B-] 4F\]	8cc\)	.	2.r	.	.	.	.
.	24cc\LL	.	.	.	.	.	.
.	24dd\	.	.	.	.	.	.
.	24cc\JJ	.	.	.	.	.	.
4r	4..b-\;>	.	.	.	.	.	.
4r	.	.	.	.	.	.	.
.	16a-\	.	.	.	.	.	.
=41:|!	=41:|!	=41:|!	=41:|!	=41:|!	=41:|!	=41:|!	=41:|!
*>C	*>C	*	*>C	*	*	*	*
4e- 4B- 4E-\	(<8g/L	.	2.r;>	.	.	.	.
.	8b-/J	.	.	.	.	.	.
2E- 2BB- 2EE-/	2ee- 2b- 2g;>\)	.	.	.	.	.	.
==	==	==	==	==	==	==	==
*-	*-	*-	*-	*-	*-	*-	*-
!!!system-decoration: [(s1){(s2,s3)}]
!!!RDF**kern: > = above
!!!RDF**kern: < = below
!!!EED: Antoni Szymański
!!!EST: 2021-04-15
!!!AIN: 1 forte 1 vox
!!!ENC: Tomasz Grochalski
!!!END: 2021-03-29
